X: 23840
T: Lively Steps
R: reel
M: 4/4
K: Dmixolydian
Adf2 AGFD|CEc2 dcBG|Adf2 AGFD|ECGE D2DF:|
defg adfd|cdef gcec|defg adfd|^ceag fddF|
defg adfd|cdef gcec|dfe^c dBAG|FAGE D2D||

